X:49
T:Casey's Hornpipe
M:2/4
L:1/16
Z: Jason R. Fruit <Jason R. Fruit@big-mac>
N: From Bob Walters, 1950.
K:Bb
FE | DB,DF BFDF | EDEG c2cB | AFAc f2=eg | f2=eg fcAF |
DB,DF BFDF | EDEG c2cB | AFAc fcAF | [BD]2[BD][cD] [BD]2 :|
|: F2 | [fd]4-[fd]cB2 | [BG]4-[BG]2cB | AFAc f2=eg | f2=eg fc=Bc |
[fd]4-[fd]cB2 | [BG]4-[BG]2cB | AFAc fcAF | [BD]2[BD][cD] [BD]2 :|